packages/kaspersky-hexa-ui-icons/src/iconsSVGs/24/Mail.svg

<svg width="24" height="24" viewBox="0 0 24 24" fill="none" xmlns="http://www.w3.org/2000/svg">
<path fill-rule="evenodd" clip-rule="evenodd" d="M2 7C2 5.34315 3.34315 4 5 4H19C20.6569 4 22 5.34315 22 7V17C22 18.6569 20.6569 20 19 20H5C3.34315 20 2 18.6569 2 17V7ZM18.4814 6H5.51859L11.3415 11.095C11.7185 11.4249 12.2815 11.4249 12.6585 11.095L18.4814 6ZM4 7.32877V17C4 17.5523 4.44772 18 5 18H19C19.5523 18 20 17.5523 20 17V7.32877L13.9755 12.6002C12.8444 13.5899 11.1556 13.5899 10.0245 12.6002L4 7.32877Z" fill="black"/>
</svg>

<svg xmlns="http://www.w3.org/2000/svg" width="24" height="24" fill="none" viewBox="0 0 24 24"><path fill="#000" fill-rule="evenodd" d="M2 7c0-1.6569 1.3432-3 3-3h14c1.6569 0 3 1.3431 3 3v10c0 1.6569-1.3431 3-3 3H5c-1.6568 0-3-1.3431-3-3zm16.4814-1H5.5186l5.8229 5.095a1 1 0 0 0 1.317 0zM4 7.3288V17c0 .5523.4477 1 1 1h14c.5523 0 1-.4477 1-1V7.3288l-6.0245 5.2714c-1.1311.9897-2.8199.9897-3.951 0z"/></svg>
